X:1
T:Pastor oves Christus
T:Daniel Friderici
T:Source : Bicinia sacra---Rostock---J.Richelius---1642. Editor : André Vierendeels (28/06/17).
T:Notes : Original clefs : G2, G2 Editorial accidentals above the staff
T:Pastor oves Christus
T:©
T:©
C:Daniel Friderici
Z:©
%%score [ 1 2 ]
L:1/8
Q:1/4=120
M:2/2
K:F
V:1 treble nm="Soprano 1" snm="S 1"
V:2 treble nm="Soprano 2" snm="S 2"
V:1
 z8 | z8 | c3 c c2 c2 | d4 c4 | B3 B B2 A2 | G4 F2 c2 | de f3 e/d/ e2 | f8 :: c6 c2 | A4 F4- | %10
w: ||Pa- stor o- ves|Chri- stus|pro- pri- a cum|mor- te re-|de- * * * * *|mit:|Hoc Pa-|sto- re,|
 F2 f4 f2 | d4 B4 | f2 e2 d2 c2 | B2 c2 d2 e2 | f2 e2 d4 | c6 F2 | AGAB c2 F2 | AGAB c4 | %18
w: _ hoc Pa-|sto- re|pi- * * *|||is, ne-|scit, _ _ _ _ ne-|scit, _ _ _ _|
 z2 B3 B A2 | G2 F4 E2 | F8 :| %21
w: ne- scit o-|bes- se Lu-|pus.|
V:2
 c3 c c2 c2 | d4 c4 | A3 A A2 A2 | B4 A4 | d3 d d2 c2 | B4 A2 A2 | G2 F2 G4 | F8 :: z8 | c6 c2 | %10
w: Pa- stor o- ves|Chri- stus,|Pa- stor o- ves|Chri- stus|pro- pri- a cum|mor- te re|de- * *|mit:||Hoc Pa-|
 A4 F4- | F2 f4 f2 | d4 B4 | f2 e2 d2 c2 | d2 c2 B4 | A2 F2 AGAB | c2 F2 AGAB | c2 F2 AGAB | %18
w: sto- re,|_ hoc Pa-|sto- re|pi- * * *||is, ne- scit, _ _ _|_ ne- scit, _ _ _|_ ne- scit, _ _ _|
 c2 d3 d c2 | B2 A2 G4 | F8 :| %21
w: _ ne- scit o-|bes- se Lu-|pus.|

